;FLAVOR:Marlin
;TIME:846
;Filament used: 0.413579m
;Layer height: 0.16
;MINX:85.2
;MINY:69.2
;MINZ:0.24
;MAXX:114.8
;MAXY:98.8
;MAXZ:20.08
;Generated with Cura_SteamEngine 4.13.1
M82 ;absolute extrusion mode
; Setup
G28 X0 Y0 ;move X/Y to min endstops
G28 Z0 ;move Z to min endstops
M105; Report Temperatures
G21 ;metric values
G90 ;absolute positioning
M82 ;set extruder to absolute mode
M107 ;start with the fan off

; Automatic bed leveling
; M140 S70.0; Set bed temperature
; M190 R70.0; Wait for Bed Temperature
; G29; Perform bed leveling
; M500; Save mesh to EEPROM
M420 S1 ;Enable auto bed leveling using stored settings

; Prepare to print
G1 X0 Y0 Z10 F9000;move X/Y/Z to wipe pos
M140 S70.0; Set bed temperature
M190 R70.0; Wait for Bed Temperature
M104 S225
M109 R225
G1 Z15.0 F9000 ;move the platform down 15mm
G92 E0 ;zero the extruded length
G1 F9000

M117 Printing...
G92 E0
G92 E0
G1 F900 E-2
;LAYER_COUNT:125
;LAYER:0
M107
G1 F600 Z1.24
G0 F3000 X86.625 Y70.605 Z1.24
;TYPE:SKIRT
G1 F600 Z0.24
G1 F900 E0.02661
G1 F1800 X87.091 Y70.198 E0.05081
G1 X87.606 Y69.854 E0.07503
G1 X88.161 Y69.579 E0.09926
G1 X88.747 Y69.378 E0.12349
G1 X89.354 Y69.254 E0.14772
G1 X89.874 Y69.211 E0.16813
G1 X90.33 Y69.2 E0.18597
G1 X109.362 Y69.2 E0.93039
G1 X110.06 Y69.21 E0.95769
G1 X110.677 Y69.259 E0.9819
G1 X111.283 Y69.387 E1.00613
G1 X111.868 Y69.592 E1.03037
G1 X112.421 Y69.871 E1.0546
G1 X112.934 Y70.218 E1.07883
G1 X113.398 Y70.628 E1.10305
G1 X113.805 Y71.095 E1.12728
G1 X114.148 Y71.61 E1.15148
G1 X114.423 Y72.166 E1.17574
G1 X114.623 Y72.752 E1.19996
G1 X114.747 Y73.359 E1.22419
G1 X114.789 Y73.875 E1.24444
G1 X114.8 Y74.33 E1.26224
G1 X114.8 Y93.323 E2.00513
G1 X114.791 Y94.05 E2.03357
G1 X114.743 Y94.668 E2.05782
G1 X114.616 Y95.274 E2.08203
G1 X114.413 Y95.859 E2.10625
G1 X114.135 Y96.413 E2.1305
G1 X113.789 Y96.926 E2.1547
G1 X113.379 Y97.391 E2.17895
G1 X112.913 Y97.799 E2.20318
G1 X112.399 Y98.143 E2.22737
G1 X111.844 Y98.419 E2.25161
G1 X111.258 Y98.621 E2.27586
G1 X110.652 Y98.745 E2.30005
G1 X110.126 Y98.789 E2.3207
G1 X109.67 Y98.8 E2.33854
G1 X90.645 Y98.8 E3.08268
G1 X89.947 Y98.791 E3.10998
G1 X89.33 Y98.743 E3.13419
G1 X88.723 Y98.616 E3.15845
G1 X88.139 Y98.412 E3.18264
G1 X87.585 Y98.134 E3.20689
G1 X87.072 Y97.787 E3.23111
G1 X86.607 Y97.378 E3.25533
G1 X86.2 Y96.911 E3.27956
G1 X85.855 Y96.397 E3.30378
G1 X85.58 Y95.842 E3.328
G1 X85.379 Y95.256 E3.35224
G1 X85.254 Y94.649 E3.37648
G1 X85.211 Y94.121 E3.3972
G1 X85.2 Y93.658 E3.41531
G1 X85.2 Y74.609 E4.16039
G1 X85.209 Y73.944 E4.18641
G1 X85.258 Y73.327 E4.21061
G1 X85.385 Y72.72 E4.23487
G1 X85.59 Y72.136 E4.25908
G1 X85.868 Y71.582 E4.28332
G1 X86.215 Y71.069 E4.30755
G1 X86.625 Y70.605 E4.33177
G0 F3000 X87.016 Y70.784
G1 F1800 X87.477 Y70.411 E4.35496
G1 X87.984 Y70.103 E4.37817
G1 X88.527 Y69.866 E4.40134
G1 X89.098 Y69.704 E4.42455
G1 X89.886 Y69.611 E4.45559
G1 X90.33 Y69.6 E4.47296
G1 X109.356 Y69.6 E5.21714
G1 X110.054 Y69.61 E5.24445
G1 X110.645 Y69.659 E5.26764
G1 X111.224 Y69.786 E5.29083
G1 X111.781 Y69.99 E5.31403
G1 X112.305 Y70.268 E5.33723
G1 X112.787 Y70.613 E5.36042
G1 X113.219 Y71.02 E5.38363
G1 X113.591 Y71.481 E5.4068
G1 X113.899 Y71.988 E5.43001
G1 X114.135 Y72.532 E5.4532
G1 X114.296 Y73.102 E5.47637
G1 X114.389 Y73.886 E5.50725
G1 X114.4 Y74.33 E5.52462
G1 X114.4 Y93.318 E6.26731
G1 X114.391 Y94.045 E6.29575
G1 X114.343 Y94.637 E6.31898
G1 X114.217 Y95.216 E6.34216
G1 X114.014 Y95.773 E6.36535
G1 X113.738 Y96.298 E6.38855
G1 X113.394 Y96.781 E6.41174
G1 X112.988 Y97.213 E6.43493
G1 X112.527 Y97.586 E6.45812
G1 X112.021 Y97.895 E6.48131
G1 X111.478 Y98.132 E6.50449
G1 X110.907 Y98.295 E6.52771
G1 X110.114 Y98.389 E6.55895
G1 X109.67 Y98.4 E6.57632
G1 X90.65 Y98.4 E7.32027
G1 X89.952 Y98.391 E7.34757
G1 X89.361 Y98.343 E7.37076
G1 X88.782 Y98.216 E7.39395
G1 X88.225 Y98.013 E7.41714
G1 X87.7 Y97.737 E7.44034
G1 X87.218 Y97.392 E7.46352
G1 X86.786 Y96.986 E7.48671
G1 X86.412 Y96.525 E7.50993
G1 X86.104 Y96.019 E7.5331
G1 X85.867 Y95.475 E7.55631
G1 X85.705 Y94.905 E7.57949
G1 X85.611 Y94.11 E7.6108
G1 X85.6 Y93.658 E7.62848
G1 X85.6 Y74.614 E8.37337
G1 X85.609 Y73.949 E8.39938
G1 X85.657 Y73.358 E8.42257
G1 X85.784 Y72.779 E8.44576
G1 X85.988 Y72.222 E8.46896
G1 X86.265 Y71.698 E8.49215
G1 X86.61 Y71.216 E8.51533
G1 X87.016 Y70.784 E8.53852
G0 F3000 X87.004 Y71.369
G1 F1800 X87.406 Y70.972 E8.56062
G1 X87.86 Y70.635 E8.58273
G1 X88.357 Y70.366 E8.60484
G1 X88.887 Y70.169 E8.62695
G1 X89.44 Y70.05 E8.64908
G1 X90.218 Y70.002 E8.67957
G1 X90.33 Y70 E8.68395
G1 X109.35 Y70 E9.42789
G1 X110.048 Y70.01 E9.4552
G1 X110.612 Y70.058 E9.47734
G1 X111.162 Y70.185 E9.49942
G1 X111.69 Y70.389 E9.52156
G1 X112.184 Y70.664 E9.54367
G1 X112.633 Y71.007 E9.56577
G1 X113.03 Y71.409 E9.58787
G1 X113.367 Y71.864 E9.61002
G1 X113.635 Y72.361 E9.6321
G1 X113.831 Y72.891 E9.65421
G1 X113.951 Y73.444 E9.67634
G1 X113.998 Y74.218 E9.70667
G1 X114 Y74.33 E9.71105
G1 X114 Y93.314 E10.45359
G1 X113.991 Y94.041 E10.48203
G1 X113.944 Y94.604 E10.50413
G1 X113.818 Y95.155 E10.52623
G1 X113.616 Y95.683 E10.54835
G1 X113.341 Y96.177 E10.57046
G1 X112.999 Y96.627 E10.59257
G1 X112.597 Y97.025 E10.61469
G1 X112.144 Y97.362 E10.63678
G1 X111.647 Y97.632 E10.6589
G1 X111.117 Y97.829 E10.68102
G1 X110.565 Y97.95 E10.70312
G1 X109.782 Y97.998 E10.7338
G1 X109.67 Y98 E10.73819
G1 X90.655 Y98 E11.48194
G1 X89.957 Y97.991 E11.50924
G1 X89.394 Y97.943 E11.53134
G1 X88.843 Y97.817 E11.55345
G1 X88.315 Y97.615 E11.57556
G1 X87.821 Y97.34 E11.59768
G1 X87.371 Y96.998 E11.61978
G1 X86.973 Y96.596 E11.64191
G1 X86.637 Y96.142 E11.664
G1 X86.367 Y95.645 E11.68613
G1 X86.17 Y95.115 E11.70824
G1 X86.05 Y94.563 E11.73034
G1 X86.001 Y93.766 E11.76157
G1 X86 Y74.62 E12.51044
G1 X86.009 Y73.955 E12.53646
G1 X86.057 Y73.392 E12.55856
G1 X86.183 Y72.841 E12.58067
G1 X86.386 Y72.313 E12.60279
G1 X86.662 Y71.819 E12.62493
G1 X87.004 Y71.369 E12.64703
G0 F3000 X87.397 Y71.531
G1 F1800 X87.794 Y71.171 E12.668
G1 X88.241 Y70.873 E12.68901
G1 X88.726 Y70.645 E12.70997
G1 X89.24 Y70.492 E12.73095
G1 X89.908 Y70.41 E12.75727
G1 X90.33 Y70.4 E12.77378
G1 X109.345 Y70.4 E13.51753
G1 X110.043 Y70.41 E13.54484
G1 X110.577 Y70.458 E13.56581
G1 X111.098 Y70.584 E13.58677
G1 X111.595 Y70.787 E13.60777
G1 X112.056 Y71.061 E13.62875
G1 X112.471 Y71.4 E13.64971
G1 X112.831 Y71.798 E13.6707
G1 X113.128 Y72.244 E13.69166
G1 X113.356 Y72.73 E13.71266
G1 X113.508 Y73.244 E13.73362
G1 X113.59 Y73.909 E13.75983
G1 X113.6 Y74.33 E13.7763
G1 X113.6 Y93.309 E14.51864
G1 X113.591 Y94.036 E14.54708
G1 X113.544 Y94.57 E14.56805
G1 X113.419 Y95.091 E14.58901
G1 X113.217 Y95.588 E14.60999
G1 X112.944 Y96.05 E14.63098
G1 X112.606 Y96.466 E14.65194
G1 X112.209 Y96.827 E14.67293
G1 X111.763 Y97.125 E14.69391
G1 X111.278 Y97.353 E14.71487
G1 X110.764 Y97.507 E14.73586
G1 X110.092 Y97.59 E14.76235
G1 X109.67 Y97.6 E14.77886
G1 X90.661 Y97.6 E15.52237
G1 X89.963 Y97.591 E15.54968
G1 X89.428 Y97.544 E15.57068
G1 X88.907 Y97.418 E15.59165
G1 X88.41 Y97.216 E15.61263
G1 X87.949 Y96.943 E15.63359
G1 X87.533 Y96.604 E15.65458
G1 X87.172 Y96.208 E15.67554
G1 X86.874 Y95.762 E15.69652
G1 X86.646 Y95.276 E15.71752
G1 X86.493 Y94.762 E15.73849
G1 X86.41 Y94.088 E15.76505
G1 X86.4 Y93.658 E15.78188
G1 X86.4 Y74.625 E16.52633
G1 X86.409 Y73.96 E16.55235
G1 X86.457 Y73.426 E16.57332
G1 X86.583 Y72.905 E16.59428
G1 X86.785 Y72.408 E16.61527
G1 X87.058 Y71.947 E16.63622
G1 X87.397 Y71.531 E16.65721
G0 F3000 X87.789 Y71.704
G1 F1800 X88.18 Y71.383 E16.677
G1 X88.617 Y71.128 E16.69679
G1 X89.088 Y70.944 E16.71657
G1 X89.582 Y70.838 E16.73633
G1 X90.24 Y70.801 E16.76211
G1 X109.339 Y70.8 E17.50915
G1 X110.037 Y70.81 E17.53645
G1 X110.54 Y70.857 E17.55621
G1 X111.03 Y70.983 E17.576
G1 X111.494 Y71.185 E17.59579
G1 X111.92 Y71.457 E17.61556
G1 X112.298 Y71.792 E17.63532
G1 X112.618 Y72.183 E17.65508
G1 X112.873 Y72.62 E17.67487
G1 X113.056 Y73.091 E17.69464
G1 X113.163 Y73.585 E17.71441
G1 X113.199 Y74.24 E17.74006
G1 X113.2 Y93.304 E18.48573
G1 X113.191 Y94.031 E18.51417
G1 X113.145 Y94.534 E18.53393
G1 X113.02 Y95.024 E18.55371
G1 X112.819 Y95.488 E18.57348
G1 X112.548 Y95.915 E18.59327
G1 X112.213 Y96.294 E18.61305
G1 X111.823 Y96.615 E18.63281
G1 X111.387 Y96.871 E18.65258
G1 X110.916 Y97.054 E18.67235
G1 X110.422 Y97.162 E18.69213
G1 X109.76 Y97.199 E18.71806
G1 X90.666 Y97.2 E19.4649
G1 X89.968 Y97.191 E19.49221
G1 X89.464 Y97.144 E19.512
G1 X88.974 Y97.019 E19.53178
G1 X88.51 Y96.818 E19.55156
G1 X88.084 Y96.547 E19.57131
G1 X87.705 Y96.212 E19.5911
G1 X87.384 Y95.821 E19.61088
G1 X87.129 Y95.385 E19.63064
G1 X86.945 Y94.914 E19.65042
G1 X86.838 Y94.42 E19.67019
G1 X86.801 Y93.744 E19.69667
G1 X86.8 Y74.631 E20.44425
G1 X86.809 Y73.966 E20.47027
G1 X86.856 Y73.462 E20.49007
G1 X86.982 Y72.973 E20.50982
G1 X87.183 Y72.509 E20.5296
G1 X87.454 Y72.082 E20.54938
G1 X87.789 Y71.704 E20.56913
G1 F900 E18.56913
;MESH:Cube
G0 F3000 X90.214 Y73.335
G0 X90.214 Y74.214
G0 X109.7 Y93.73
G1 F900 E20.59574
G0 F3000 X109.8 Y93.8
;TYPE:WALL-OUTER
G1 F1800 X90.2 Y93.8 E21.36237
G1 X90.2 Y74.2 E22.12901
G1 X109.8 Y74.2 E22.89564
G1 X109.8 Y93.8 E23.66227
G0 F3000 X109.6 Y93.8
G0 X109.41 Y93.41
;TYPE:SKIN
G1 F1800 X90.59 Y93.41 E24.3984
G1 X90.59 Y74.59 E25.13452
G1 X109.41 Y74.59 E25.87064
G1 X109.41 Y93.41 E26.60677
G0 F3000 X109.229 Y75.127
G1 F1800 X108.871 Y74.769 E26.62657
G0 F3000 X108.306 Y74.769
G1 F1800 X109.229 Y75.693 E26.67765
G0 F3000 X109.229 Y76.259
G1 F1800 X107.74 Y74.769 E26.76005
G0 F3000 X107.174 Y74.769
G1 F1800 X109.229 Y76.824 E26.87372
G0 F3000 X109.229 Y77.39
G1 F1800 X106.609 Y74.769 E27.01867
G0 F3000 X106.043 Y74.769
G1 F1800 X109.229 Y77.956 E27.19494
G0 F3000 X109.229 Y78.521
G1 F1800 X105.477 Y74.769 E27.40248
G0 F3000 X104.912 Y74.769
G1 F1800 X109.229 Y79.087 E27.6413
G0 F3000 X109.229 Y79.653
G1 F1800 X104.346 Y74.769 E27.91144
G0 F3000 X103.78 Y74.769
G1 F1800 X109.229 Y80.218 E28.21285
G0 F3000 X109.229 Y80.784
G1 F1800 X103.214 Y74.769 E28.54557
G0 F3000 X102.649 Y74.769
G1 F1800 X109.229 Y81.35 E28.90958
G0 F3000 X109.229 Y81.915
G1 F1800 X102.083 Y74.769 E29.30486
G0 F3000 X101.517 Y74.769
G1 F1800 X109.229 Y82.481 E29.73145
G0 F3000 X109.229 Y83.047
G1 F1800 X100.952 Y74.769 E30.18933
G0 F3000 X100.386 Y74.769
G1 F1800 X109.229 Y83.612 E30.67848
G0 F3000 X109.229 Y84.178
G1 F1800 X99.82 Y74.769 E31.19894
G0 F3000 X99.255 Y74.769
G1 F1800 X109.229 Y84.744 E31.75069
G0 F3000 X109.229 Y85.31
G1 F1800 X98.689 Y74.769 E32.33374
G0 F3000 X98.123 Y74.769
G1 F1800 X109.229 Y85.875 E32.94807
G0 F3000 X109.229 Y86.441
G1 F1800 X97.558 Y74.769 E33.59369
G0 F3000 X96.992 Y74.769
G1 F1800 X109.229 Y87.007 E34.27061
G0 F3000 X109.229 Y87.572
G1 F1800 X96.426 Y74.769 E34.97881
G0 F3000 X95.861 Y74.769
G1 F1800 X109.229 Y88.138 E35.7183
G0 F3000 X109.229 Y88.704
G1 F1800 X95.295 Y74.769 E36.48909
G0 F3000 X94.729 Y74.769
G1 F1800 X109.229 Y89.269 E37.29117
G0 F3000 X109.229 Y89.835
G1 F1800 X94.163 Y74.769 E38.12455
G0 F3000 X93.598 Y74.769
G1 F1800 X109.229 Y90.401 E38.98921
G0 F3000 X109.229 Y90.966
G1 F1800 X93.032 Y74.769 E39.88515
G0 F3000 X92.466 Y74.769
G1 F1800 X109.229 Y91.532 E40.81241
G0 F3000 X109.229 Y92.098
G1 F1800 X91.901 Y74.769 E41.77094
G0 F3000 X91.335 Y74.769
G1 F1800 X109.229 Y92.663 E42.76076
G0 F3000 X109.229 Y93.229
G1 F1800 X90.769 Y74.769 E43.78188
G0 F3000 X90.769 Y75.335
G1 F1800 X108.663 Y93.229 E44.77169
G0 F3000 X108.098 Y93.229
G1 F1800 X90.769 Y75.901 E45.73023
G0 F3000 X90.769 Y76.466
G1 F1800 X107.532 Y93.229 E46.65748
G0 F3000 X106.966 Y93.229
G1 F1800 X90.769 Y77.032 E47.55342
G0 F3000 X90.769 Y77.598
G1 F1800 X106.401 Y93.229 E48.41809
G0 F3000 X105.835 Y93.229
G1 F1800 X90.769 Y78.163 E49.25147
G0 F3000 X90.769 Y78.729
G1 F1800 X105.269 Y93.229 E50.05354
G0 F3000 X104.704 Y93.229
G1 F1800 X90.769 Y79.295 E50.82434
G0 F3000 X90.769 Y79.861
G1 F1800 X104.138 Y93.229 E51.56382
G0 F3000 X103.572 Y93.229
G1 F1800 X90.769 Y80.426 E52.27202
G0 F3000 X90.769 Y80.992
G1 F1800 X103.007 Y93.229 E52.94895
G0 F3000 X102.441 Y93.229
G1 F1800 X90.769 Y81.558 E53.59456
G0 F3000 X90.769 Y82.123
G1 F1800 X101.875 Y93.229 E54.20889
G0 F3000 X101.31 Y93.229
G1 F1800 X90.769 Y82.689 E54.79195
G0 F3000 X90.769 Y83.255
G1 F1800 X100.744 Y93.229 E55.34369
G0 F3000 X100.178 Y93.229
G1 F1800 X90.769 Y83.82 E55.86415
G0 F3000 X90.769 Y84.386
G1 F1800 X99.612 Y93.229 E56.35331
G0 F3000 X99.047 Y93.229
G1 F1800 X90.769 Y84.952 E56.81118
G0 F3000 X90.769 Y85.517
G1 F1800 X98.481 Y93.229 E57.23777
G0 F3000 X97.915 Y93.229
G1 F1800 X90.769 Y86.083 E57.63306
G0 F3000 X90.769 Y86.649
G1 F1800 X97.35 Y93.229 E57.99706
G0 F3000 X96.784 Y93.229
G1 F1800 X90.769 Y87.214 E58.32978
G0 F3000 X90.769 Y87.78
G1 F1800 X96.218 Y93.229 E58.6312
G0 F3000 X95.653 Y93.229
G1 F1800 X90.769 Y88.346 E58.90133
G0 F3000 X90.769 Y88.912
G1 F1800 X95.087 Y93.229 E59.14015
G0 F3000 X94.521 Y93.229
G1 F1800 X90.769 Y89.477 E59.3477
G0 F3000 X90.769 Y90.043
G1 F1800 X93.956 Y93.229 E59.52396
G0 F3000 X93.39 Y93.229
G1 F1800 X90.769 Y90.609 E59.66891
G0 F3000 X90.769 Y91.174
G1 F1800 X92.824 Y93.229 E59.78259
G0 F3000 X92.259 Y93.229
G1 F1800 X90.769 Y91.74 E59.86498
G0 F3000 X90.769 Y92.306
G1 F1800 X91.693 Y93.229 E59.91606
G0 F3000 X91.127 Y93.229
M104 S225
G1 F1800 X90.769 Y92.871 E59.93587
G1 F900 E57.93587
;MESH:NONMESH
G0 F600 X90.769 Y92.871 Z0.4
G0 F3000 X109.73 Y93.73
G1 F900 E59.96247
G0 F3000 X109.8 Y93.8
;TIME_ELAPSED:59.016698
;LAYER:1
G1 F900 E57.96247
;TYPE:WALL-OUTER
;MESH:Cube
G1 F900 E59.98908
G1 F1800 X90.2 Y93.8 E60.50017
G1 X90.2 Y74.2 E61.01126
G1 X109.8 Y74.2 E61.52235
G1 X109.8 Y93.8 E62.03344
G0 F4500 X109.6 Y93.8
G0 X109.41 Y93.41
;TYPE:SKIN
G1 F1800 X90.59 Y93.41 E62.52419
G1 X90.59 Y74.59 E63.01494
G1 X109.41 Y74.59 E63.50568
G1 X109.41 Y93.41 E63.99643
G0 F4500 X109.124 Y93.229
G1 F1800 X109.229 Y93.124 E64.00031
G0 F4500 X109.229 Y92.559
G1 F1800 X108.559 Y93.229 E64.02501
G0 F4500 X107.993 Y93.229
G1 F1800 X109.229 Y91.993 E64.07059
G0 F4500 X109.229 Y91.427
G1 F1800 X107.427 Y93.229 E64.13705
G0 F4500 X106.862 Y93.229
G1 F1800 X109.229 Y90.862 E64.22433
G0 F4500 X109.229 Y90.296
G1 F1800 X106.296 Y93.229 E64.33249
G0 F4500 X105.73 Y93.229
G1 F1800 X109.229 Y89.73 E64.46153
G0 F4500 X109.229 Y89.165
G1 F1800 X105.165 Y93.229 E64.61139
G0 F4500 X104.599 Y93.229
G1 F1800 X109.229 Y88.599 E64.78213
G0 F4500 X109.229 Y88.033
G1 F1800 X104.033 Y93.229 E64.97375
G0 F4500 X103.468 Y93.229
G1 F1800 X109.229 Y87.468 E65.18619
G0 F4500 X109.229 Y86.902
G1 F1800 X102.902 Y93.229 E65.41952
G0 F4500 X102.336 Y93.229
G1 F1800 X109.229 Y86.336 E65.67371
G0 F4500 X109.229 Y85.771
G1 F1800 X101.771 Y93.229 E65.94874
G0 F4500 X101.205 Y93.229
G1 F1800 X109.229 Y85.205 E66.24464
G0 F4500 X109.229 Y84.639
G1 F1800 X100.639 Y93.229 E66.56141
G0 F4500 X100.073 Y93.229
G1 F1800 X109.229 Y84.073 E66.89906
G0 F4500 X109.229 Y83.508
G1 F1800 X99.508 Y93.229 E67.25754
G0 F4500 X98.942 Y93.229
G1 F1800 X109.229 Y82.942 E67.63689
G0 F4500 X109.229 Y82.376
G1 F1800 X98.376 Y93.229 E68.03712
G0 F4500 X97.811 Y93.229
G1 F1800 X109.229 Y81.811 E68.45818
G0 F4500 X109.229 Y81.245
G1 F1800 X97.245 Y93.229 E68.90011
G0 F4500 X96.679 Y93.229
G1 F1800 X109.229 Y80.679 E69.36292
G0 F4500 X109.229 Y80.114
G1 F1800 X96.114 Y93.229 E69.84656
G0 F4500 X95.548 Y93.229
G1 F1800 X109.229 Y79.548 E70.35107
G0 F4500 X109.229 Y78.982
G1 F1800 X94.982 Y93.229 E70.87646
G0 F4500 X94.417 Y93.229
G1 F1800 X109.229 Y78.417 E71.42268
G0 F4500 X109.229 Y77.851
G1 F1800 X93.851 Y93.229 E71.98977
G0 F4500 X93.285 Y93.229
G1 F1800 X109.229 Y77.285 E72.57774
G0 F4500 X109.229 Y76.72
G1 F1800 X92.72 Y93.229 E73.18654
G0 F4500 X92.154 Y93.229
G1 F1800 X109.229 Y76.154 E73.81621
G0 F4500 X109.229 Y75.588
G1 F1800 X91.588 Y93.229 E74.46676
G0 F4500 X91.023 Y93.229
G1 F1800 X109.229 Y75.023 E75.13814
G0 F4500 X108.917 Y74.769
G1 F1800 X90.769 Y92.917 E75.80739
G0 F4500 X90.769 Y92.351
G1 F1800 X108.351 Y74.769 E76.45576
G0 F4500 X107.785 Y74.769
G1 F1800 X90.769 Y91.785 E77.08325
G0 F4500 X90.769 Y91.22
G1 F1800 X107.22 Y74.769 E77.68992
